X:1
T:A CALL FOR DEMONS arranged by george kuhns
L:1/8
K:F
Q:1/4=119
R:MAMBO ESTILO
M:4/4
| z4  z2  z C, | "F"F,3 C, F,4 | F,3/2F,/2- F,C, F,3 C, | "F5"F,3 C, F,4 |
| F,3/2F,/2- F,C, F,2- F,/2C/2[D/2C,/2]F/2 | "F5"[G/2F,/2]F/2D/2F/2 _AC, F,2- F,3/2F/2 | [G/2F,/2]FF,/2- F,C, F,2- F,/2C/2[D/2C,/2]F/2 | "F5"[G/2F,/2]F/2D/2F/2 =BC, [_B/2F,/2]_A/2F/2_A/2 B/2_A3/2 |
| [c/2F,/2]_eF,/2- F,C, [F,/2f/2]_e3/2 f/2_e/2[C,/2f/2]_e/2 | "F5"[d3F,3] [_gC,] F,2 _a2 | [F,/2=g/2]f/2c/2[F,/2G/2] F/2=B,/2C,/2B,/2C/2 [_D2F,2--] [_D/2F,/2]C/2[=D/2C,/2]F/2 | "F5"[=e3d3F,3] C, F,f/2g/2 _a/2g/2f/2[C,/2e/2]d/2 |
| [e/2F/2F,/2]D[F/2F,/2] D[F/2C,/2]D/2 F,/2D/2_D- _D/2C/2[=D/2C,/2]F/2 | "F5"[G/2F,/2]F/2D/2F/2 _AC, F,2- F,3/2F/2 | [G/2F,/2]FF,/2- F,C, F,2- F,/2C/2[D/2C,/2]F/2 | "F5"[G/2F,/2]F/2D/2F/2 =BC, [_B/2F,/2]_A/2F/2_A/2 B/2_A3/2 |
| [c/2F,/2]_eF,/2- F,C, [F,/2f/2]_e3/2 f/2_e/2[C,/2f/2]_e/2 | "F5"[d3F,3] [_gC,] F,2 _a2 | [F,/2=g/2]f/2c/2[F,/2G/2] F/2=B,/2C,/2B,/2C/2 [_D2F,2--] [_D/2F,/2]C/2[=D/2C,/2]F/2 | "F5"[=e3d3F,3] C, F,f/2g/2 _a/2g/2f/2[C,/2e/2]d/2 |
| [e/2F/2F,/2]D[F/2F,/2] D[F/2C,/2]D/2 F,/2D/2_D- _DC, |

